!!!OTL: Frau Fischerin
!!!ARE: Europa, Mitteleuropa, Deutschland
!!!SCT: A0045
!!!YEM: Copyright 1995, estate of Helmut Schaffrath.
**kern
*ICvox
*Ivox
*M3/1
*k[b-]
*d:
=1
{1dd
1dd
1dd
=2
1.ffn
2ee
1dd
=3
1ee
0ffn
=4
0gg}
{1gg
=5
1ffn
1ee
1dd
=6
1cc#
0dd
=7
0.ee}
=8
{1dd
1dd
1dd
=9
1.ffn
2ee
1dd
=10
1ee
0ffn
=11
0gg}
{1gg
=12
1ffn
1ee
1dd
=13
1cc#
0dd
=14
0ee}
{1dd
=15
0dd
1dd
=16
0b-
1b-
=17
0ccn
1b-
=18
0a}
{1a
=19
1b-
1b-
1ccn
=20
1.dd
2ccn
1b-
=21
1a
0dd
=22
0ccn}
{1dd
=23
1.ccn
2b-
1a
=24
1b-
0g
=25
0fn}
{1dd
=26
0dd
1dd
=27
0b-
1b-
=28
0ccn
1b-
=29
0a}
{1a
=30
1b-
1b-
1ccn
=31
1.dd
2ccn
1b-
=32
1a
0dd
=33
0ccn}
{1dd
=34
1.ccn
2b-
1a
=35
1b-
0g
=36
0fn}
{1b-
=37
1.a
2g
1fn
=38
1g
0e
=39
0.d}
==
!!!AGN: Romanze, Ballade, Lied
!! Melodie von Boehme aus drei Fragmenten zusammengesetzt: Schmeltzel
!!    1544 Quodlibet 2 und 19.
!!!ONB: ESAC (Essen Associative Code) Database: ALTDEU
!!!AMT: simple triple
!!!AIN: vox
!!!EED: Helmut Schaffrath
!!!EEV: 1.0
*-
